DEF ./robot_prog/()
GLOBAL INTERRUPT DECL 3 WHEN $STOPMESS==TRUE DO IR_STOPM ( )
INTERRUPT ON 3
BAS (#INITMOV,0)
BAS (#VEL_PTP,20)
BAS (#ACC_PTP,20)
$BASE=BASE_DATA[1]
$TOOL=TOOL_DATA[16]
$VEL.CP=2
$ACC.CP=2

; Home
PTP {A1 0, A2 -90, A3 90, A4 0, A5 0, A6 0, E1 0} C_DIS
PTP {X 537.018, Y -321.491, Z 180.362, A 180.000, B 66.649, C -90.000} C_DIS
LIN {X 531.566, Y -321.491, Z 182.667, A 180.000, B 70.476, C -90.000} C_DIS
LIN {X 522.096, Y -321.491, Z 185.989, A 180.000, B 73.814, C -90.000} C_DIS
LIN {X 512.023, Y -321.491, Z 188.885, A 180.000, B 76.802, C -90.000} C_DIS
LIN {X 501.418, Y -321.491, Z 191.349, A 180.000, B 79.510, C -90.000} C_DIS
LIN {X 490.346, Y -321.491, Z 193.379, A 180.000, B 82.034, C -90.000} C_DIS
LIN {X 478.899, Y -321.491, Z 194.964, A 180.000, B 84.402, C -90.000} C_DIS
LIN {X 467.159, Y -321.491, Z 196.098, A 180.000, B 86.678, C -90.000} C_DIS
LIN {X 455.222, Y -321.491, Z 196.776, A 180.000, B 88.897, C -90.000} C_DIS
LIN {X 443.181, Y -321.491, Z 196.993, A 0.000, B 88.897, C 90.000} C_DIS
LIN {X 431.134, Y -321.491, Z 196.746, A 0.000, B 86.678, C 90.000} C_DIS
LIN {X 419.180, Y -321.491, Z 196.037, A 0.000, B 84.402, C 90.000} C_DIS
LIN {X 407.411, Y -321.491, Z 194.866, A 0.000, B 82.034, C 90.000} C_DIS
LIN {X 395.915, Y -321.491, Z 193.238, A 0.000, B 79.510, C 90.000} C_DIS
LIN {X 384.788, Y -321.491, Z 191.155, A 0.000, B 76.802, C 90.000} C_DIS
LIN {X 374.099, Y -321.491, Z 188.620, A 0.000, B 73.814, C 90.000} C_DIS
LIN {X 363.927, Y -321.491, Z 185.632, A 0.000, B 70.476, C 90.000} C_DIS
LIN {X 354.321, Y -321.491, Z 182.179, A 0.000, B 66.649, C 90.000} C_DIS
LIN {X 350.113, Y -321.491, Z 180.362, A 0.000, B 66.649, C 90.000} C_DIS
LIN {X 350.113, Y -271.491, Z 180.362, A 0.000, B 66.649, C 90.000} C_DIS
LIN {X 354.321, Y -271.491, Z 182.179, A 0.000, B 66.649, C 90.000} C_DIS
LIN {X 363.927, Y -271.491, Z 185.632, A 0.000, B 70.476, C 90.000} C_DIS
LIN {X 374.099, Y -271.491, Z 188.620, A 0.000, B 73.814, C 90.000} C_DIS
LIN {X 384.788, Y -271.491, Z 191.155, A 0.000, B 76.802, C 90.000} C_DIS
LIN {X 395.915, Y -271.491, Z 193.238, A 0.000, B 79.510, C 90.000} C_DIS
LIN {X 407.411, Y -271.491, Z 194.866, A 0.000, B 82.034, C 90.000} C_DIS
LIN {X 419.180, Y -271.491, Z 196.037, A 0.000, B 84.402, C 90.000} C_DIS
LIN {X 431.134, Y -271.491, Z 196.746, A 0.000, B 86.678, C 90.000} C_DIS
LIN {X 443.181, Y -271.491, Z 196.993, A 0.000, B 88.897, C 90.000} C_DIS
LIN {X 455.222, Y -271.491, Z 196.776, A 180.000, B 88.897, C -90.000} C_DIS
LIN {X 467.159, Y -271.491, Z 196.098, A 180.000, B 86.678, C -90.000} C_DIS
LIN {X 478.899, Y -271.491, Z 194.964, A 180.000, B 84.402, C -90.000} C_DIS
LIN {X 490.346, Y -271.491, Z 193.379, A 180.000, B 82.034, C -90.000} C_DIS
LIN {X 501.418, Y -271.491, Z 191.349, A 180.000, B 79.510, C -90.000} C_DIS
LIN {X 512.023, Y -271.491, Z 188.885, A 180.000, B 76.802, C -90.000} C_DIS
LIN {X 522.096, Y -271.491, Z 185.989, A 180.000, B 73.814, C -90.000} C_DIS
LIN {X 531.566, Y -271.491, Z 182.667, A 180.000, B 70.476, C -90.000} C_DIS
LIN {X 537.018, Y -271.491, Z 180.362, A 180.000, B 66.649, C -90.000} C_DIS
LIN {X 537.018, Y -221.491, Z 180.362, A 180.000, B 66.649, C -90.000} C_DIS
LIN {X 531.566, Y -221.491, Z 182.667, A 180.000, B 70.476, C -90.000} C_DIS
LIN {X 522.096, Y -221.491, Z 185.989, A 180.000, B 73.814, C -90.000} C_DIS
LIN {X 512.023, Y -221.491, Z 188.885, A 180.000, B 76.802, C -90.000} C_DIS
LIN {X 501.418, Y -221.491, Z 191.349, A 180.000, B 79.510, C -90.000} C_DIS
LIN {X 490.346, Y -221.491, Z 193.379, A 180.000, B 82.034, C -90.000} C_DIS
LIN {X 478.899, Y -221.491, Z 194.964, A 180.000, B 84.402, C -90.000} C_DIS
LIN {X 467.159, Y -221.491, Z 196.098, A 180.000, B 86.678, C -90.000} C_DIS
LIN {X 455.222, Y -221.491, Z 196.776, A 180.000, B 88.897, C -90.000} C_DIS
LIN {X 443.181, Y -221.491, Z 196.993, A 0.000, B 88.897, C 90.000} C_DIS
LIN {X 431.134, Y -221.491, Z 196.746, A 0.000, B 86.678, C 90.000} C_DIS
LIN {X 419.180, Y -221.491, Z 196.037, A 0.000, B 84.402, C 90.000} C_DIS
LIN {X 407.411, Y -221.491, Z 194.866, A 0.000, B 82.034, C 90.000} C_DIS
LIN {X 395.915, Y -221.491, Z 193.238, A 0.000, B 79.510, C 90.000} C_DIS
LIN {X 384.788, Y -221.491, Z 191.155, A 0.000, B 76.802, C 90.000} C_DIS
LIN {X 374.099, Y -221.491, Z 188.620, A 0.000, B 73.814, C 90.000} C_DIS
LIN {X 363.927, Y -221.491, Z 185.632, A 0.000, B 70.476, C 90.000} C_DIS
LIN {X 354.321, Y -221.491, Z 182.179, A 0.000, B 66.649, C 90.000} C_DIS
LIN {X 350.113, Y -221.491, Z 180.362, A 0.000, B 66.649, C 90.000} C_DIS
LIN {X 350.113, Y -171.491, Z 180.362, A 0.000, B 66.649, C 90.000} C_DIS
LIN {X 354.321, Y -171.491, Z 182.179, A 0.000, B 66.649, C 90.000} C_DIS
LIN {X 363.927, Y -171.491, Z 185.632, A 0.000, B 70.476, C 90.000} C_DIS
LIN {X 374.099, Y -171.491, Z 188.620, A 0.000, B 73.814, C 90.000} C_DIS
LIN {X 384.788, Y -171.491, Z 191.155, A 0.000, B 76.802, C 90.000} C_DIS
LIN {X 395.915, Y -171.491, Z 193.238, A 0.000, B 79.510, C 90.000} C_DIS
LIN {X 407.411, Y -171.491, Z 194.866, A 0.000, B 82.034, C 90.000} C_DIS
LIN {X 419.180, Y -171.491, Z 196.037, A 0.000, B 84.402, C 90.000} C_DIS
LIN {X 431.134, Y -171.491, Z 196.746, A 0.000, B 86.678, C 90.000} C_DIS
LIN {X 443.181, Y -171.491, Z 196.993, A 0.000, B 88.897, C 90.000} C_DIS
LIN {X 455.222, Y -171.491, Z 196.776, A 180.000, B 88.897, C -90.000} C_DIS
LIN {X 467.159, Y -171.491, Z 196.098, A 180.000, B 86.678, C -90.000} C_DIS
LIN {X 478.899, Y -171.491, Z 194.964, A 180.000, B 84.402, C -90.000} C_DIS
LIN {X 490.346, Y -171.491, Z 193.379, A 180.000, B 82.034, C -90.000} C_DIS
LIN {X 501.418, Y -171.491, Z 191.349, A 180.000, B 79.510, C -90.000} C_DIS
LIN {X 512.023, Y -171.491, Z 188.885, A 180.000, B 76.802, C -90.000} C_DIS
LIN {X 522.096, Y -171.491, Z 185.989, A 180.000, B 73.814, C -90.000} C_DIS
LIN {X 531.566, Y -171.491, Z 182.667, A 180.000, B 70.476, C -90.000} C_DIS
LIN {X 537.018, Y -171.491, Z 180.362, A 180.000, B 66.649, C -90.000} C_DIS
LIN {X 537.018, Y -121.491, Z 180.362, A 180.000, B 66.649, C -90.000} C_DIS
LIN {X 531.566, Y -121.491, Z 182.667, A 180.000, B 70.476, C -90.000} C_DIS
LIN {X 522.096, Y -121.491, Z 185.989, A 180.000, B 73.814, C -90.000} C_DIS
LIN {X 512.023, Y -121.491, Z 188.885, A 180.000, B 76.802, C -90.000} C_DIS
LIN {X 501.418, Y -121.491, Z 191.349, A 180.000, B 79.510, C -90.000} C_DIS
LIN {X 490.346, Y -121.491, Z 193.379, A 180.000, B 82.034, C -90.000} C_DIS
LIN {X 478.899, Y -121.491, Z 194.964, A 180.000, B 84.402, C -90.000} C_DIS
LIN {X 467.159, Y -121.491, Z 196.098, A 180.000, B 86.678, C -90.000} C_DIS
LIN {X 455.222, Y -121.491, Z 196.776, A 180.000, B 88.897, C -90.000} C_DIS
LIN {X 443.181, Y -121.491, Z 196.993, A 0.000, B 88.897, C 90.000} C_DIS
LIN {X 431.134, Y -121.491, Z 196.746, A 0.000, B 86.678, C 90.000} C_DIS
LIN {X 419.180, Y -121.491, Z 196.037, A 0.000, B 84.402, C 90.000} C_DIS
LIN {X 407.411, Y -121.491, Z 194.866, A 0.000, B 82.034, C 90.000} C_DIS
LIN {X 395.915, Y -121.491, Z 193.238, A 0.000, B 79.510, C 90.000} C_DIS
LIN {X 384.788, Y -121.491, Z 191.155, A 0.000, B 76.802, C 90.000} C_DIS
LIN {X 374.099, Y -121.491, Z 188.620, A 0.000, B 73.814, C 90.000} C_DIS
LIN {X 363.927, Y -121.491, Z 185.632, A 0.000, B 70.476, C 90.000} C_DIS
LIN {X 354.321, Y -121.491, Z 182.179, A 0.000, B 66.649, C 90.000} C_DIS
LIN {X 350.113, Y -121.491, Z 180.362, A 0.000, B 66.649, C 90.000} C_DIS
LIN {X 350.113, Y -71.491, Z 180.362, A 0.000, B 66.649, C 90.000} C_DIS
LIN {X 354.321, Y -71.491, Z 182.179, A 0.000, B 66.649, C 90.000} C_DIS
LIN {X 363.927, Y -71.491, Z 185.632, A 0.000, B 70.476, C 90.000} C_DIS
LIN {X 374.099, Y -71.491, Z 188.620, A 0.000, B 73.814, C 90.000} C_DIS
LIN {X 384.788, Y -71.491, Z 191.155, A 0.000, B 76.802, C 90.000} C_DIS
LIN {X 395.915, Y -71.491, Z 193.238, A 0.000, B 79.510, C 90.000} C_DIS
LIN {X 407.411, Y -71.491, Z 194.866, A 0.000, B 82.034, C 90.000} C_DIS
LIN {X 419.180, Y -71.491, Z 196.037, A 0.000, B 84.402, C 90.000} C_DIS
LIN {X 431.134, Y -71.491, Z 196.746, A 0.000, B 86.678, C 90.000} C_DIS
LIN {X 443.181, Y -71.491, Z 196.993, A 0.000, B 88.897, C 90.000} C_DIS
LIN {X 455.222, Y -71.491, Z 196.776, A 180.000, B 88.897, C -90.000} C_DIS
LIN {X 467.159, Y -71.491, Z 196.098, A 180.000, B 86.678, C -90.000} C_DIS
LIN {X 478.899, Y -71.491, Z 194.964, A 180.000, B 84.402, C -90.000} C_DIS
LIN {X 490.346, Y -71.491, Z 193.379, A 180.000, B 82.034, C -90.000} C_DIS
LIN {X 501.418, Y -71.491, Z 191.349, A 180.000, B 79.510, C -90.000} C_DIS
LIN {X 512.023, Y -71.491, Z 188.885, A 180.000, B 76.802, C -90.000} C_DIS
LIN {X 522.096, Y -71.491, Z 185.989, A 180.000, B 73.814, C -90.000} C_DIS
LIN {X 531.566, Y -71.491, Z 182.667, A 180.000, B 70.476, C -90.000} C_DIS
LIN {X 537.018, Y -71.491, Z 180.362, A 180.000, B 66.649, C -90.000} C_DIS
LIN {X 537.018, Y -21.491, Z 180.362, A 180.000, B 66.649, C -90.000} C_DIS
LIN {X 531.566, Y -21.491, Z 182.667, A 180.000, B 70.476, C -90.000} C_DIS
LIN {X 522.096, Y -21.491, Z 185.989, A 180.000, B 73.814, C -90.000} C_DIS
LIN {X 512.023, Y -21.491, Z 188.885, A 180.000, B 76.802, C -90.000} C_DIS
LIN {X 501.418, Y -21.491, Z 191.349, A 180.000, B 79.510, C -90.000} C_DIS
LIN {X 490.346, Y -21.491, Z 193.379, A 180.000, B 82.034, C -90.000} C_DIS
LIN {X 478.899, Y -21.491, Z 194.964, A 180.000, B 84.402, C -90.000} C_DIS
LIN {X 467.159, Y -21.491, Z 196.098, A 180.000, B 86.678, C -90.000} C_DIS
LIN {X 455.222, Y -21.491, Z 196.776, A 180.000, B 88.897, C -90.000} C_DIS
LIN {X 443.181, Y -21.491, Z 196.993, A 0.000, B 88.897, C 90.000} C_DIS
LIN {X 431.134, Y -21.491, Z 196.746, A 0.000, B 86.678, C 90.000} C_DIS
LIN {X 419.180, Y -21.491, Z 196.037, A 0.000, B 84.402, C 90.000} C_DIS
LIN {X 407.411, Y -21.491, Z 194.866, A 0.000, B 82.034, C 90.000} C_DIS
LIN {X 395.915, Y -21.491, Z 193.238, A 0.000, B 79.510, C 90.000} C_DIS
LIN {X 384.788, Y -21.491, Z 191.155, A 0.000, B 76.802, C 90.000} C_DIS
LIN {X 374.099, Y -21.491, Z 188.620, A 0.000, B 73.814, C 90.000} C_DIS
LIN {X 363.927, Y -21.491, Z 185.632, A 0.000, B 70.476, C 90.000} C_DIS
LIN {X 354.321, Y -21.491, Z 182.179, A 0.000, B 66.649, C 90.000} C_DIS
LIN {X 350.113, Y -21.491, Z 180.362, A 0.000, B 66.649, C 90.000} C_DIS
LIN {X 350.113, Y 28.509, Z 180.362, A 0.000, B 66.649, C 90.000} C_DIS
LIN {X 354.321, Y 28.509, Z 182.179, A 0.000, B 66.649, C 90.000} C_DIS
LIN {X 363.927, Y 28.509, Z 185.632, A 0.000, B 70.476, C 90.000} C_DIS
LIN {X 374.099, Y 28.509, Z 188.620, A 0.000, B 73.814, C 90.000} C_DIS
LIN {X 384.788, Y 28.509, Z 191.155, A 0.000, B 76.802, C 90.000} C_DIS
LIN {X 395.915, Y 28.509, Z 193.238, A 0.000, B 79.510, C 90.000} C_DIS
LIN {X 407.411, Y 28.509, Z 194.866, A 0.000, B 82.034, C 90.000} C_DIS
LIN {X 419.180, Y 28.509, Z 196.037, A 0.000, B 84.402, C 90.000} C_DIS
LIN {X 431.134, Y 28.509, Z 196.746, A 0.000, B 86.678, C 90.000} C_DIS
LIN {X 443.181, Y 28.509, Z 196.993, A 0.000, B 88.897, C 90.000} C_DIS
LIN {X 455.222, Y 28.509, Z 196.776, A 180.000, B 88.897, C -90.000} C_DIS
LIN {X 467.159, Y 28.509, Z 196.098, A 180.000, B 86.678, C -90.000} C_DIS
LIN {X 478.899, Y 28.509, Z 194.964, A 180.000, B 84.402, C -90.000} C_DIS
LIN {X 490.346, Y 28.509, Z 193.379, A 180.000, B 82.034, C -90.000} C_DIS
LIN {X 501.418, Y 28.509, Z 191.349, A 180.000, B 79.510, C -90.000} C_DIS
LIN {X 512.023, Y 28.509, Z 188.885, A 180.000, B 76.802, C -90.000} C_DIS
LIN {X 522.096, Y 28.509, Z 185.989, A 180.000, B 73.814, C -90.000} C_DIS
LIN {X 531.566, Y 28.509, Z 182.667, A 180.000, B 70.476, C -90.000} C_DIS
LIN {X 537.018, Y 28.509, Z 180.362, A 180.000, B 66.649, C -90.000} C_DIS
LIN {X 537.018, Y 78.509, Z 180.362, A 180.000, B 66.649, C -90.000} C_DIS
LIN {X 531.566, Y 78.509, Z 182.667, A 180.000, B 70.476, C -90.000} C_DIS
LIN {X 522.096, Y 78.509, Z 185.989, A 180.000, B 73.814, C -90.000} C_DIS
LIN {X 512.023, Y 78.509, Z 188.885, A 180.000, B 76.802, C -90.000} C_DIS
LIN {X 501.418, Y 78.509, Z 191.349, A 180.000, B 79.510, C -90.000} C_DIS
LIN {X 490.346, Y 78.509, Z 193.379, A 180.000, B 82.034, C -90.000} C_DIS
LIN {X 478.899, Y 78.509, Z 194.964, A 180.000, B 84.402, C -90.000} C_DIS
LIN {X 467.159, Y 78.509, Z 196.098, A 180.000, B 86.678, C -90.000} C_DIS
LIN {X 455.222, Y 78.509, Z 196.776, A 180.000, B 88.897, C -90.000} C_DIS
LIN {X 443.181, Y 78.509, Z 196.993, A 0.000, B 88.897, C 90.000} C_DIS
LIN {X 431.134, Y 78.509, Z 196.746, A 0.000, B 86.678, C 90.000} C_DIS
LIN {X 419.180, Y 78.509, Z 196.037, A 0.000, B 84.402, C 90.000} C_DIS
LIN {X 407.411, Y 78.509, Z 194.866, A 0.000, B 82.034, C 90.000} C_DIS
LIN {X 395.915, Y 78.509, Z 193.238, A 0.000, B 79.510, C 90.000} C_DIS
LIN {X 384.788, Y 78.509, Z 191.155, A 0.000, B 76.802, C 90.000} C_DIS
LIN {X 374.099, Y 78.509, Z 188.620, A 0.000, B 73.814, C 90.000} C_DIS
LIN {X 363.927, Y 78.509, Z 185.632, A 0.000, B 70.476, C 90.000} C_DIS
LIN {X 354.321, Y 78.509, Z 182.179, A 0.000, B 66.649, C 90.000} C_DIS
LIN {X 350.113, Y 78.509, Z 180.362, A 0.000, B 66.649, C 90.000} C_DIS

END